other/firstent.svg

<?xml version="1.0" encoding="UTF-8"?><svg id="b" xmlns="http://www.w3.org/2000/svg" viewBox="0 0 48 48"><defs><style>.d{fill:none;stroke:#fff;stroke-linecap:round;stroke-linejoin:round;}</style></defs><path id="c" class="d" d="m44.788,18.514l-16.688,3.266M2.763,27.35l13.613-2.96m-5.845-6.828l-7.875,7.328M29.207,3.14l-6.807,5.577m-16.562,3.366l26.832,31.323m2.924-1.588c-3.96-13.238-10.32-26.103-15.687-38.925m25.593,21.107c0,11.8741-9.6259,21.5-21.5,21.5S2.5,35.8741,2.5,24,12.1259,2.5,24,2.5s21.5,9.6259,21.5,21.5Z"/></svg>

<svg viewBox="0 0 48 48" version="1.1" id="prefix__svg1" xmlns="http://www.w3.org/2000/svg"><defs id="prefix__defs1"><style id="style1"></style></defs><path id="prefix__path5" d="M44.788 18.514L28.1 21.78M2.763 27.35l13.613-2.96m-5.845-6.828L2.656 24.89M29.207 3.14L22.4 8.717M5.838 12.083L32.67 43.406m2.924-1.588c-3.96-13.238-10.32-26.103-15.687-38.925M45.5 24A21.5 21.5 0 0124 45.5 21.5 21.5 0 012.5 24 21.5 21.5 0 0124 2.5 21.5 21.5 0 0145.5 24z" fill="none" stroke="#fff"/></svg>
